X:1
T:3. Jesu Christe
T: Johan August Söderman (1832 - 1876)
T:Andeliga Sånger (1872)
T:3. Jesu Christe
T:Coro
C:Johan August Söderman
C:(1832 - 1876)
%%score [ 1 2 3 4 ]
L:1/8
Q:1/4=88
M:4/4
K:Dmin
V:1 treble nm="Soprano" snm="S"
V:2 treble nm="Alto" snm="A"
V:3 treble-8 nm="Tenore" snm="T"
V:4 bass nm="Basso" snm="B"
V:1
"^Andante" z2 | z4 z2!p! d2 |"^sost." c2 B2 A2 G2 | (F2 E2) A2 G2 | F2 G2!<(! A2 d2!<)! | %5
w: |O|Je- su Chris- te|ca- * re Sol|pec- to- ris prae-|
 (d2 ^c2) d2 A2 |!>(! A2 G2!>)! F2!<(! A2 | (d2!<)! c2)!>(! =B2 B2!>)! | A4 A2 z2 | z4!mf! z2 d2 | %10
w: cla- * re, Sol|pec- to- ris prae-|cla- * re, prae-|cla- re,|At-|
 d2!<(! e2 f2 f2!<)! |!f! (e2 d2 c2) =B2 |!>(! (A2 ^G2)!>)! A2!mf! A2 | =B2 ^c2 d2 e2 | A4 A2 A2 | %15
w: ten- de vo- ta|nost- * * ra|gra- * te O|Je- su Chris- te|ca- re Sol|
 A2 =B2 c2 d2 | G4 G2 G2 | G2 A2 B2 c2 |"^cresc."!ff! F4 F2 F2 | d3 d c2 B2 | A2 G2 F2 F2 | %21
w: pec- to- ris prae-|cla- re, Ex-|cel- lens bo- ni-|ta- te At-|ten- de vo- ta|vo- ta nost- ra|
!>(! (F6!>)! E2) | F2 z2 z4 | z4!p! z2 d2 | c2 B2 A2 G2 | (F2 E2) A2 G2 | F2!<(! G2!<)! A2 d2 | %27
w: gra- *|te|O|Je- su Chris- te|ca- * re Sol|pec- to- ris prae-|
 (d2 ^c2) d2 A2 | A2 ^G2 A2 =G2 | F2!>(! E2 D2!>)! ^C2 | D2 D2 z2!p! d2 | c2 B2 A2 G2 | d4 d2 c2 | %33
w: cla- * re, Sol|pec- to- ris Sol|pec- to- ris prae-|cla- re Ex-|cel- lens bo- ni-|ta- te At-|
 B2 A2 G2 G2 |!<(! ^F4!<)! B4 | (A4"^rall."!>(! ^F2 E2)!>)! | !fermata!D8 |] %37
w: ten- de vo- ta|nost- ra|gra- * *|te.|
V:2
 A2 |"^sost." G2 F2 E2 D2 | D4 D2 D2 | D2 ^C2 F2 E2 | D4!<(! D2 D2!<)! | E2 E2 D2 D2 | %6
w: O|Je- su Chris- te|ca- re Sol|pec- to- ris prae-|cla- re Sol|pec- to- ris prae-|
!>(! ^C4!>)! D2!<(! F2 | F2!<)! E2!>(! F2 (E!>)!D) | (C2 F2) E2 z2 | z2!mf! A2 A2 G2- | %10
w: cla- re Sol|pec- to- ris prae- *|cla- * re,|At- ten- de|
 G2!<(! (G2 F2) F2!<)! |!f! F6 F2 |!>(! E4!>)! E2 z2 | z4!mf! z2 A2 | G2 F2 E2 D2 | D2 D2 z2 G2 | %16
w: _ vo- * ta|nost- ra|gra- te|O|Je- su Chris- te|ca- re Sol|
 F2 E2 D2 C2 | C2 C2 z2 _E2 |"^cresc."!ff! _E4 D2 F2 | D3 D _E2 D2 | D2 D2 D2 C2 | %21
w: pec- to- ris prae-|cla- re prae-|cla- re At-|ten- de vo- ta|vo- ta nost- ra|
!>(! (=B,4!>)! _B,4) | A,2 z2 z2!p! A2 | G2 F2 E2 D2 | D4 D2 D2 | D2 ^C2 F2 E2 | D4!<)!!<(! D2 D2 | %27
w: gra- *|te O|Je- su Chris- te|ca- re Sol|pec- to- ris prae-|cla- re, Sol|
 E2 E2 D2 D2 | D4 ^C2 E2 | D2!>(! B,2 A,2 A,2!>)! | A,2 A,2 z4 | z4 z2!p! G2 | ^F2 E2 D2 _E2 | %33
w: pec- to- ris prae-|cla- re Sol|pec- to- ris prae-|cla- re|At-|ten- de vo- ta|
 D6 E2 |!<(! D4!<)! D4 | ^C8 |!>(! !fermata!D8!>)! |] %37
w: vo- ta|nost- ra|gra-|te.|
V:3
 z2 | z8 | z2!p! d2"^sost." c2 B2 | A4 A2 A2 | A2 A2!<(! A2 A2!<)! | B4 A2 A2 | %6
w: ||O Je- su|ca- re Sol|pec- to- ris prae-|cla- re, prae-|
!>(! A4!>)! A2!<(! A2 | A2!<)! A2!>(! A2 ^G2!>)! | (A2 d2) c2!mf! (f2 | e2) (e2 d2) d2 | %10
w: cla- re Sol|pec- to- ris prae-|cla- * re, At-|* ten- * de|
 (d2!<(! ^c2 d2) A2!<)! |!f! (A2 =B2) (c2 d2) |!>(! (c2 =B2)!>)! c2 z2 | z2!mf! A2 =B2 ^c2 | %14
w: vo- * * ta|nost- * ra _|gra- * te|O Je- su|
 d2 d2 z4 | z2 G2 A2 =B2 | c2 c2 z4 | z2 F2 G2 A2 |"^cresc."!ff! B4 B2 F2 | F3 F ^F2 G2 | %20
w: ca- re|O Je- su|ca- re|O Je- su|ca- re At-|ten- de vo- ta|
 A2 B2 A2 A2 |!>(! (_A2 G6)!>)! | F2!p! A2 A2 A2 | A4 A2 z2 | z2 d2 c2 B2 | A4 A2 A2 | %26
w: vo- ta nost- ra|gra- *|te O Je- su|ca- re|O Je- su|ca- re Sol|
 A2!<(! A2!<)! A2 A2 | B4 A2 A2 | =B4 A2 A2 | A2!>(! G2 F2!>)! E2 | F2 F2 z4 |!p! z2 d2 c2 B2 | %32
w: pec- to- ris prae-|cla- re, prae-|cla- re Sol|pec- to- ris prae-|cla- re|Ex- cel- lens|
 A2 G2 ^F2 F2 | (G2 A2) B2 B2 |!<(! A4!<)! G4 | (G2 ^F2!>(! A2 G2)!>)! | !fermata!^F8 |] %37
w: bo- ni- ta- te|At- * ten- de|vo- ta|gra- * * *|te.|
V:4
 z2 |!p! z2 A,2"^sost." G,2 F,2 | G,4 G,2 G,2 | A,2 A,2 A,,2 ^C,2 | (D,3 E,)!<(! F,2 F,2!<)! | %5
w: |O Je- su|ca- re Sol|pec- to- ris prae-|cla- * re Sol|
 G,2 G,2 F,2 F,2 |!>(! E,4!>)! D,2!<(! C,2 | =B,,2!<)! C,2!>(! D,2 E,2!>)! | A,4!mf! A,2 D2- | %9
w: pec- to- ris prae-|cla- re Sol|pec- to- ris prae-|cla- re, At-|
 D2 C2- C2 B,2 | A,4!<(! D,4!<)! |!f! D,4 D,4 |!>(! E,4!>)! A,2 z2 | z8 |!mf! z2 A,2 G,2 F,2 | %15
w: * ten- * de|vo- ta|nost- ra|gra- te||O Je- su|
 G,2 G,2 z4 | z2 G,2 F,2 E,2 | F,2 F,2 z4 |!ff! z4 z2 F,2 | B,,3 B,, B,,2 B,,2 | %20
w: ca- re|O Je- su|ca- re|At-|ten- de vo- ta|
 B,,2 B,,2 =B,,2 C,2 |!>(! (D,4 _D,2!>)! C,2) | F,,2 z2 z4 |!p! z2 A,2 G,2 F,2 | G,4 G,2 G,2 | %25
w: vo- ta nost- ra|gra- * *|te|O Je- su|ca- re Sol|
 A,2 A,2 A,,2 ^C,2 | (D,3!<(! E,) F,2!<)! F,2 | G,2 G,2 F,2 F,2 | E,4 A,,2 ^C,2 | %29
w: pec- to- ris prae-|cla- * re Sol|pec- to- ris prae-|cla- re Sol|
 D,2!>(! G,,2 A,,2!>)! A,,2 | D,2 D,2!p! D,4 | D,8 | D,8 | D,6 ^C,2 |!<(! D,4!<)! G,,4 | A,,8 | %36
w: pec- to- ris prae-|cla- re At-|ten-|de|Vo- ta|nost- ra|gra-|
!>(! !fermata!D,8!>)! |] %37
w: te.|

